svg/projector.svg

<svg xmlns="http://www.w3.org/2000/svg" viewBox="0 0 24 24"><path d="M16 6c-1.13 0-2.23.35-3.16 1H4c-1.11 0-2 .89-2 2v6c0 1.11.89 2 2 2h1v1a1 1 0 0 0 1 1h2a1 1 0 0 0 1-1v-1h6v1a1 1 0 0 0 1 1h2a1 1 0 0 0 1-1v-1h1c1.11 0 2-.89 2-2V9c0-1.11-.89-2-2-2h-.85c-.92-.65-2.02-1-3.15-1m0 1.5a3.5 3.5 0 0 1 3.5 3.5 3.5 3.5 0 0 1-3.5 3.5 3.5 3.5 0 0 1-3.5-3.5A3.5 3.5 0 0 1 16 7.5M4 9h4v1H4zm12 0a2 2 0 0 0-2 2 2 2 0 0 0 2 2 2 2 0 0 0 2-2 2 2 0 0 0-2-2M4 11h4v1H4zm0 2h4v1H4z"/></svg>

<?xml version="1.0" encoding="UTF-8"?><!DOCTYPE svg PUBLIC "-//W3C//DTD SVG 1.1//EN" "http://www.w3.org/Graphics/SVG/1.1/DTD/svg11.dtd"><svg xmlns="http://www.w3.org/2000/svg" xmlns:xlink="http://www.w3.org/1999/xlink" version="1.1" id="mdi-projector" width="24" height="24" viewBox="0 0 24 24"><path d="M16,6C14.87,6 13.77,6.35 12.84,7H4C2.89,7 2,7.89 2,9V15C2,16.11 2.89,17 4,17H5V18A1,1 0 0,0 6,19H8A1,1 0 0,0 9,18V17H15V18A1,1 0 0,0 16,19H18A1,1 0 0,0 19,18V17H20C21.11,17 22,16.11 22,15V9C22,7.89 21.11,7 20,7H19.15C18.23,6.35 17.13,6 16,6M16,7.5A3.5,3.5 0 0,1 19.5,11A3.5,3.5 0 0,1 16,14.5A3.5,3.5 0 0,1 12.5,11A3.5,3.5 0 0,1 16,7.5M4,9H8V10H4V9M16,9A2,2 0 0,0 14,11A2,2 0 0,0 16,13A2,2 0 0,0 18,11A2,2 0 0,0 16,9M4,11H8V12H4V11M4,13H8V14H4V13Z" /></svg>
